X: 5
T: The Star Above The Garter
R: slide
M: 6/8
L: 1/8
K: Gmaj
|:"G"d2B BAG | "Am"~A3 ABA|"C"G2E c2B | BAG "D"ABc|
  "G"d2B BAG | "D"~A3 ABA|1 "C"G2E c2E | "D"E2D DBc:|2 "C"G2E c2E | "D"E2D D2c||
|:"D"d2e f2a | "C"g2e d2B|"G"G2B c2B | BAG "D"ABc|
  "D"d2e f2a | "C"g2e d2B|1 "G"G2B "C"c2E | "D"E2D D2c:|2 G2B"C"c2E | "D"E2D D3||

%%newpage
%% header "Pizza Wizards - Spotted Dog / Calliope House		$P"

